.local/share/icons/Gruvbox-Plus-Dark/status/symbolic/network-error-symbolic.svg

<svg width="16" height="16" version="1.1" xmlns="http://www.w3.org/2000/svg">
  <defs>
    <style id="current-color-scheme" type="text/css">.ColorScheme-Text { color:#ebdbb2; } .ColorScheme-Highlight { color:#458588; } .ColorScheme-NeutralText { color:#fe8019; } .ColorScheme-PositiveText { color:#689d6a; } .ColorScheme-NegativeText { color:#fb4934; }</style>
  </defs>
  <path class="ColorScheme-Text" d="m10 0v2h-3v5h3v2l1-0.8184v-3.182h3.889l0.6113-0.5zm-4 6-5.5 4.5 5.5 4.5v-2h3v-5h-3z" fill="currentColor" opacity=".3"/>
  <path class="ColorScheme-NegativeText" d="m12 6v4l0.25 2h1.5l0.25-2v-4zm0 7v2h2v-2z" fill="currentColor"/>
</svg>

<svg xmlns="http://www.w3.org/2000/svg" width="16" height="16" version="1.1">
 <path style="fill:#ebdbb2;opacity:0.3" d="M 10 0 L 10 2 L 7 2 L 7 7 L 10 7 L 10 9 L 11 8.1816 L 11 5 L 14.889 5 L 15.5 4.5 L 10 0 z"/>
 <path style="fill:#ebdbb2;opacity:0.3" d="M 6,6 0.5,10.5 6,15 V 13 H 9 V 8 H 6 Z"/>
 <path style="fill:#458588" class="warning" d="M 12,6 V 10 L 12.25,12 H 13.75 L 14,10 V 6 Z M 12,13 V 15 H 14 V 13 Z"/>
</svg>
